X:1
T: The Shoemaker's Fancy
C:
R:Jig
Q:180
K:D
M:6/8
L:1/16
|:A2|F2D2E2 F4d2|c2A2A2 B2A2G2|F2D2E2 F4d2|c2A2F2 G4A2|
F2D2E2 F4d2|c2A2A2 A2d2e2|f2e2f2 d2e2d2|c2A2F2 G4:|
|:A2|c2A2A2 f2e2d2|c2A2A2 A4B2|c2A2A2 f2e2d2|c2A2F2 G4A2|
c2A2A2 f2e2d2|c2A2A2 A2d2e2|f2e2f2 d2e2d2|c2A2F2 G4:|
